**kern
*ICvox
*D-:
*M4/4
*clefF4
r;
=1
*>Letter>A
*>Label>Intro
1r
=2
1r
=3
1r
=4
1r
=5
1r
=6
1r
=7
1r
=8
1r
=9
*>Letter>B
*>Label>Verse
4d-
[4d-
8d-]
4c
[8c-
=10
8c-]
4D-
8D-
8F
4.A-
=11
4r
8r
8D-
8d-
8d-
8c
[8c-
=12
4c-]
4r
2r
=13
4r
8d-
8d-
8d-
4c
[8c-
=14
8c-]
4D-
8D-
8F
4.A-
=15
4r
8r
8D-
6d-
6c
[6c-
=16
4c-]
4r
2r
=17
2r
8d-
8d-
8c-
[8B-
=18
8B-]
4D-
[8G-
8G-]
4B-
8r
=19
2r
8d-
8d-
8c-
[8B-
=20
2B-]
2r
=21
4r
8r
8D-
8d-
8d-
8c
[8c-
=22
4.c-]
8D-
8F
4A-
8r
=23
4r
8r
8D-
8d-
8d-
8c
[8c-
=24
2c-]
2r
=25
*>Letter>C
*>Label>Chorus
4A-
4A-
4A-
4A-
=26
2A-
8A-
8A-
4A-
=27
4d-
4D-
8D-
4D-
[8D-
=28
4D-]
8r
8D-
8F
8G-
8F
8~A-
=29
4r
8d-
8d-
8d-
8c
8c
[8c-
=30
8c-]
8D-
8D-
[8F
8F]
4.A-
=31
4r
8r
8D-
8d-
8d-
8c
[8c-
=32
2.c-_
8c-]
8r
=33
*>Letter>B
*>Label>Verse
4r
8d-
8d-
8d-
4c
[8c-
=34
8c-]
4D-
8D-
4F
4A-
=35
4r
8d-
8d-
8d-
4c
[8c-
=36
2.c-]
4r
=37
4r
8d-
8d-
8d-
8d-
8c
[8c-
=38
4.c-]
8D-
4F
4A-
=39
4r
8r
8~E-
8d-
8d-
8c
[8c-
=40
2.c-]
4r
=41
4r
8r
8~E-
8d-
8c
8c-
[8B-
=42
8B-]
4D-
[8G-
8G-]
8B-
4r
=43
8r
8G-
8d-
8d-
8c
4c-
[8B-
=44
2B-_
8B-]
8r
4r
=45
2r
8d-
8d-
8c
[8c-
=46
4c-]
8D-
[8F
8F]
4.A-
=47
4r
8r
8D-
8d-
8d-
8c
[8c-
=48
2c-]
2r
=49
*>Letter>C
*>Label>Chorus
4A-
4A-
4A-
4A-
=50
2A-
4A-
4A-
=51
4d-
4D-
8D-
4D-
[8D-
=52
4D-]
4r
8F
8G-
8F
8~A-
=53
4r
8r
8D-
8d-
8c
8c-
[8c-
=54
4c-]
8D-
8D-
8F
4.A-
=55
4r
8d-
8d-
8d-
4c
[8c-
=56
2c-_
8c-]
8r
4r
=57
*>Letter>C
*>Label>Chorus
4A-
4A-
4A-
4A-
=58
2A-
4A-
4A-
=59
4d-
4D-
8D-
4D-
[8D-
=60
4D-]
8r
8D-
8F
8G-
8F
8~A-
=61
4r
8d-
8d-
8d-
8c
8c
[8c-
=62
8c-]
8D-
8D-
[8F
8F]
4.A-
=63
4r
8r
8D-
8d-
8d-
8c
[8c-
=64
1c-]
=65
*>Letter>B
*>Label>Solo
1r
=66
1r
=67
1r
=68
1r
=69
1r
=70
1r
=71
1r
=72
1r
=73
1r
=74
1r
=75
1r
=76
1r
=77
1r
=78
1r
=79
*>Letter>B
*>Label>Verse
4r
8d-
8d-
8d-
8d-
8c
[8c-
=80
4c-]
8D-
[8F
8F]
8A-
4r
=81
4r
8r
8~E-
8d-
8d-
8c
[8c-
=82
8c-]
8c-
4r
2r
=83
4r
8d-
8d-
8d-
8~c
8c
[8c-
=84
8c-]
4D-
8D-
4F
4A-
=85
4r
8r
8~E-
8d-
8d-
8c
[8c-
=86
4c-]
8r
8f
2r
=87
8r
8B-
8d-
8c
8d-
8c
8c-
[8B-
=88
8B-]
8Aq
4B-
8D-
4G-
4B-
=89
4r
8d-
8d-
8c
4c-
[8B-
=90
2B-_
8B-]
8r
4r
=91
2r
8d-
8d-
8c
[8c-
=92
8c-]
4c-
8D-
8F
4.A-
=93
4r
8r
8D-
8d-
8d-
8c
[8c-
=94
2.c-]
4r
=95
*>Letter>C
*>Label>Chorus
4A-
4A-
4A-
4A-
=96
[4.A-
16A-]
[16A-
8.A-]
[16A-
4A-]
=97
4d-
4D-
8D-
4D-
[8D-
=98
4D-]
4r
8~F-
8~G-
8~F
8~G-
=99
4r
8r
8D-
8d-
8~c
8c-
[8c-
=100
4c-]
8D-
8D-
8F
4.A-
=101
4r
8d-
8d-
8d-
4c
[8c-
=102
2c-_
8c-]
8r
4r
=103
*>Letter>C
*>Label>Chorus
4A-
4A-
4A-
4A-
=104
2A-
4A-
4A-
=105
4d-
4D-
8D-
4D-
[8D-
=106
4D-]
8r
8D-
8F
8G-
8F
8~A-
=107
4r
8r
8D-
8d-
8~c
8c-
8c-
=108
1r
r;
*-
!!!BillboardChartDate: 1966/08/13
!!!BillboardPeak: 1
!!!BillboardWeeksOnChart: 13
!!!COC: Donovan
!!!ENC: Nathaniel Condit-Schultz
!!!EST: Awating manual error checking and editing.
!!!OTL: Sunshine Superman
!!!RDF**chordsym: original McGill chord annotation + (implied pitch class set, with bass pitch in first position)
!!!RDF**harmony: **recip + pitch class of root + harmonic quality
!!!RDF**leadinstrument: original McGill primary instrumentation annotation
!!!RDF**phrase: newline = linebreak in original McGill transcription
!!!RDF**timestamp: McGill audio timestamp in seconds
!!!RDT: 2017/01/12/
!!!SampleActualRank: 20
!!!SampleID#: 0383
!!!SampleTargetRank: 19
